X:44
T:Hornpipes 4 - Enrico*
T:Kristjani Reilender
M:4/4
K:Dmaj
"D"DE FG A2 A2 | "G"Ad "A"ce "D"d2 ef | "G"g2 "Em"eg "D"f2 "Bm"d2 | "G"cd ed "A"(3cBA (3GFE |
"D"DE FG A2 A2 | "G"Ad "A"ce "D"d2 ef | "G"g2 eg "D"f2 "Bm"d2 |1 "A"cd ec "G"dB "A"AF :|2 "A"cd ec "G"de "A"fg ||
"D"a2 ff "Bm"f2 ef | "Em"g2 ee "A"e2 de | "D"f2 dd "Bm"d2 cd | "Em"ed cB "A"AB (3cBA |
"D"d2 ef "G"g2 ab | "D"a2 ff "D/F#"f2 ef | "G"gf ed "A"cd ec |1 "G"df "A"ec "D"de fg :|2 "G"(3dBA "A"(3GFE "D"D4 ||
T:Enrico
M:4/4
L:1/8
K:D
A2 | "D"d2 fe "G"dc dB | "A"AB AG "Bm"F2 A2 | "D"d2 ef "G"gf ed | "A"c2 a2 a2 f2 |
"D"d2 fe "G"dc dB | "A"AB AG "Bm"F2 A2 | "G"B2 gf "A"ed ec | "G"d2 d2 "D"d2 :|
fg | "D"a2 ag fg fe | de dc "G"B2 B2 | "Em"ga gf ef ed | cd cB "A"A2 A2 |
"D"d2 d2 "A"ce cA | "D"d2 d2 "A"ce cA | "G"d2 f2 "A"ed ec | "G"d2 "A"d2 "D"d2 :|

